X: 10
T: Lady Anne Montgomery
Z: tziguk
S: https://thesession.org/tunes/59#setting53451
R: reel
M: 4/4
L: 1/8
K: Dmaj
|:FADA FADA|FAdA BABc|dBAF E2 EF|DB,A,B, D4|
FADA FADA|FAdA B2Bc|dBAF E2 EF|DB,A,B, D4:|
|:f3 g fede|fedB ABde|f3 f -fede|faaf e2de|
f3 g fede|fedB ABde|f2 ed B2A2|fgfe d4:|

%-------------------- TUNE SEPARATOR --------------------%

